assets/slide_confirm_arrow.svg

<svg fill="none" height="15" viewBox="0 0 16 15" width="16" xmlns="http://www.w3.org/2000/svg"><path d="m9.60353 14.1979c.66997-.6699 1.33997-1.3399 2.01257-2.0125l3.938-3.93809c.0924-.09232.1636-.19783.2111-.31125.0633-.14243.0923-.29542.0896-.4484-.0026-.26641-.1028-.53545-.3033-.73328-.67-.66997-1.3399-1.33995-2.0125-2.01255l-3.93547-3.938069c-.39038-.390378-1.10783-.419392-1.49293 0-.38774.422029-.41675 1.076179 0 1.492929l4.1464 4.14644h-9.37429c-.55128 0-1.10519-.00791-1.65647 0h-.02374c-.551273 0-1.081448.48534-1.055071 1.05508.026377.57237.464233 1.05507 1.055071 1.05507h11.0598c-.0712.07122-.1424.14243-.2136.21365l-3.20482 3.20477c-.24531.2453-.48797.488-.73328.7333-.39038.3904-.41939 1.1078 0 1.4929.42203.3878 1.07618.4168 1.49293 0z" fill="#fafafa"/></svg>

<svg width="16" height="15" viewBox="0 0 16 15" fill="none" xmlns="http://www.w3.org/2000/svg">
<path d="M9.60353 14.1979C10.2735 13.528 10.9435 12.858 11.6161 12.1854L15.5541 8.24731C15.6465 8.15499 15.7177 8.04948 15.7652 7.93606C15.8285 7.79363 15.8575 7.64064 15.8548 7.48766C15.8522 7.22125 15.752 6.95221 15.5515 6.75438C14.8815 6.08441 14.2116 5.41443 13.539 4.74183L9.60353 0.803761C9.21315 0.413383 8.4957 0.384369 8.1106 0.803761C7.72286 1.22579 7.69385 1.87994 8.1106 2.29669L12.257 6.44313L2.88271 6.44313C2.33143 6.44313 1.77752 6.43522 1.22624 6.44313H1.2025C0.651227 6.44313 0.121052 6.92847 0.147429 7.49821C0.173806 8.07058 0.611662 8.55328 1.2025 8.55328H12.2623C12.1911 8.6245 12.1199 8.69571 12.0487 8.76693L8.84388 11.9717C8.59857 12.217 8.35591 12.4597 8.1106 12.705C7.72022 13.0954 7.69121 13.8128 8.1106 14.1979C8.53263 14.5857 9.18678 14.6147 9.60353 14.1979Z" fill="#FAFAFA"/>
</svg>
